@extra/phlat-icons/symbolic-24/youtube.svg

<?xml version="1.0" encoding="UTF-8" standalone="no"?>
<svg id="svg28" xmlns="http://www.w3.org/2000/svg" version="1.1" viewBox="-4 -4 24 24"><path id="rect18" style="stroke-width:.34958;paint-order:markers stroke fill;stroke-linecap:round;stroke-opacity:0.995;fill:#f1f2f2" d="m3.5137 2c-1.9465 0-3.5137 1.5672-3.5137 3.5137v5.9723c0 1.947 1.5672 3.514 3.5137 3.514h8.9723c1.947 0 3.514-1.567 3.514-3.514v-5.9723c0-1.9465-1.567-3.5137-3.514-3.5137h-8.9723zm1.4863 2.9121l6 3.5449-6 3.543v-7.0879z"/></svg>

<svg xmlns="http://www.w3.org/2000/svg" viewBox="-4 -4 24 24">
    <path d="M3.514 2A3.506 3.506 0 0 0 0 5.514v5.972A3.506 3.506 0 0 0 3.514 15h8.972A3.506 3.506 0 0 0 16 11.486V5.514A3.506 3.506 0 0 0 12.486 2H3.514zM5 4.912l6 3.545L5 12V4.912z" paint-order="markers stroke fill" fill="#f1f2f2"/>
</svg>
